Newaita-dark/actions/24/distribute-vertical-center.svg

<?xml version="1.0" encoding="UTF-8"?>
<svg xmlns="http://www.w3.org/2000/svg" xmlns:xlink="http://www.w3.org/1999/xlink" width="24pt" height="24pt" viewBox="0 0 24 24" version="1.1">
<g id="surface1">
<path style=" stroke:none;fill-rule:evenodd;fill:rgb(14.901961%,77.64706%,85.490197%);fill-opacity:1;" d="M 22.078125 13.417969 C 22.078125 13.226562 21.921875 13.070312 21.734375 13.070312 L 17.585938 13.070312 C 17.320312 13.070312 17.15625 13.351562 17.28125 13.582031 L 19.355469 16.011719 C 19.570312 16.269531 19.746094 16.269531 19.960938 16.011719 L 22.035156 13.582031 C 22.0625 13.53125 22.078125 13.476562 22.078125 13.417969 Z M 22.078125 13.417969 "/>
<path style=" stroke:none;fill-rule:evenodd;fill:rgb(14.901961%,77.64706%,85.490197%);fill-opacity:1;" d="M 22.078125 10.773438 C 22.078125 10.964844 21.921875 11.117188 21.734375 11.117188 L 17.585938 11.117188 C 17.320312 11.117188 17.15625 10.835938 17.28125 10.605469 L 19.355469 8.179688 C 19.570312 7.917969 19.746094 7.917969 19.960938 8.179688 L 22.035156 10.605469 C 22.0625 10.65625 22.078125 10.714844 22.078125 10.773438 Z M 22.078125 10.773438 "/>
<path style=" stroke:none;fill-rule:nonzero;fill:rgb(74.117649%,74.117649%,74.117649%);fill-opacity:1;" d="M 15.628906 3.660156 C 15.628906 2.835938 14.964844 2.171875 14.140625 2.171875 L 9.179688 2.171875 C 8.355469 2.171875 7.691406 2.835938 7.691406 3.660156 L 7.691406 8.621094 C 7.691406 9.445312 8.355469 10.109375 9.179688 10.109375 L 14.140625 10.109375 C 14.964844 10.109375 15.628906 9.445312 15.628906 8.621094 Z M 14.140625 4.652344 L 14.140625 7.628906 C 14.140625 8.179688 13.699219 8.621094 13.148438 8.621094 L 10.171875 8.621094 C 9.621094 8.621094 9.179688 8.179688 9.179688 7.628906 L 9.179688 4.652344 C 9.179688 4.101562 9.621094 3.660156 10.171875 3.660156 L 13.148438 3.660156 C 13.699219 3.660156 14.140625 4.101562 14.140625 4.652344 Z M 14.140625 4.652344 "/>
<path style=" stroke:none;fill-rule:nonzero;fill:rgb(74.117649%,74.117649%,74.117649%);fill-opacity:1;" d="M 8.683594 6.140625 C 8.683594 6.6875 8.238281 7.132812 7.691406 7.132812 L 2.730469 7.132812 C 2.179688 7.132812 1.738281 6.6875 1.738281 6.140625 C 1.738281 5.59375 2.179688 5.148438 2.730469 5.148438 L 7.691406 5.148438 C 8.238281 5.148438 8.683594 5.59375 8.683594 6.140625 Z M 8.683594 6.140625 "/>
<path style=" stroke:none;fill-rule:nonzero;fill:rgb(74.117649%,74.117649%,74.117649%);fill-opacity:1;" d="M 19.597656 6.140625 C 19.597656 6.6875 19.152344 7.132812 18.605469 7.132812 L 15.628906 7.132812 C 15.082031 7.132812 14.636719 6.6875 14.636719 6.140625 C 14.636719 5.59375 15.082031 5.148438 15.628906 5.148438 L 18.605469 5.148438 C 19.152344 5.148438 19.597656 5.59375 19.597656 6.140625 Z M 19.597656 6.140625 "/>
<path style=" stroke:none;fill-rule:nonzero;fill:rgb(74.117649%,74.117649%,74.117649%);fill-opacity:1;" d="M 15.628906 15.566406 C 15.628906 14.742188 14.964844 14.078125 14.140625 14.078125 L 5.167969 14.078125 C 4.34375 14.078125 3.679688 14.742188 3.679688 15.566406 L 3.679688 20.53125 C 3.679688 21.355469 4.34375 22.019531 5.167969 22.019531 L 14.140625 22.019531 C 14.964844 22.019531 15.628906 21.355469 15.628906 20.53125 Z M 14.140625 16.558594 L 14.140625 19.535156 C 14.140625 20.085938 13.699219 20.53125 13.148438 20.53125 L 6.160156 20.53125 C 5.609375 20.53125 5.167969 20.085938 5.167969 19.535156 L 5.167969 16.558594 C 5.167969 16.011719 5.609375 15.566406 6.160156 15.566406 L 13.148438 15.566406 C 13.699219 15.566406 14.140625 16.011719 14.140625 16.558594 Z M 14.140625 16.558594 "/>
<path style=" stroke:none;fill-rule:nonzero;fill:rgb(74.117649%,74.117649%,74.117649%);fill-opacity:1;" d="M 4.714844 18.046875 C 4.714844 18.597656 4.269531 19.039062 3.722656 19.039062 L 2.730469 19.039062 C 2.179688 19.039062 1.738281 18.597656 1.738281 18.046875 C 1.738281 17.5 2.179688 17.054688 2.730469 17.054688 L 3.722656 17.054688 C 4.269531 17.054688 4.714844 17.5 4.714844 18.046875 Z M 4.714844 18.046875 "/>
<path style=" stroke:none;fill-rule:nonzero;fill:rgb(74.117649%,74.117649%,74.117649%);fill-opacity:1;" d="M 19.597656 18.046875 C 19.597656 18.597656 19.152344 19.039062 18.605469 19.039062 L 15.628906 19.039062 C 15.082031 19.039062 14.636719 18.597656 14.636719 18.046875 C 14.636719 17.5 15.082031 17.054688 15.628906 17.054688 L 18.605469 17.054688 C 19.152344 17.054688 19.597656 17.5 19.597656 18.046875 Z M 19.597656 18.046875 "/>
</g>
</svg>

<svg xmlns="http://www.w3.org/2000/svg" width="32" height="32" viewBox="0 0 24 24"><path d="M22.078 13.418a.348.348 0 0 0-.344-.348h-4.148a.346.346 0 0 0-.305.512l2.074 2.43c.215.258.391.258.606 0l2.074-2.43a.343.343 0 0 0 .043-.164zm0 0M22.078 10.773a.344.344 0 0 1-.344.344h-4.148a.346.346 0 0 1-.305-.512l2.074-2.425c.215-.262.391-.262.606 0l2.074 2.425c.027.051.043.11.043.168zm0 0" fill-rule="evenodd" fill="#26c6da"/><path d="M15.629 3.66c0-.824-.664-1.488-1.488-1.488H9.18c-.825 0-1.489.664-1.489 1.488v4.961c0 .824.664 1.488 1.489 1.488h4.96c.825 0 1.489-.664 1.489-1.488zm-1.488.992V7.63c0 .55-.442.992-.993.992h-2.976a.989.989 0 0 1-.992-.992V4.652c0-.55.441-.992.992-.992h2.976c.551 0 .993.442.993.992zm0 0" fill="#bdbdbd"/><path d="M8.684 6.14a.994.994 0 0 1-.993.993h-4.96a.991.991 0 1 1 0-1.985h4.96c.547 0 .993.446.993.993zm0 0M19.598 6.14a.994.994 0 0 1-.993.993H15.63a.994.994 0 0 1-.992-.992c0-.547.445-.993.992-.993h2.976c.547 0 .993.446.993.993zm0 0M15.629 15.566c0-.824-.664-1.488-1.488-1.488H5.168c-.824 0-1.488.664-1.488 1.488v4.965c0 .824.664 1.489 1.488 1.489h8.973c.824 0 1.488-.665 1.488-1.489zm-1.488.993v2.976c0 .55-.442.996-.993.996H6.16a.992.992 0 0 1-.992-.996V16.56c0-.547.441-.993.992-.993h6.988c.551 0 .993.446.993.993zm0 0" fill="#bdbdbd"/><path d="M4.715 18.047c0 .55-.445.992-.992.992H2.73a.989.989 0 0 1-.992-.992c0-.547.442-.992.992-.992h.993c.547 0 .992.445.992.992zm0 0M19.598 18.047c0 .55-.446.992-.993.992H15.63a.991.991 0 1 1 0-1.984h2.976c.547 0 .993.445.993.992zm0 0" fill="#bdbdbd"/></svg>
